images_sukapura_svg/cmd/sc_smallcaps.svg

<svg viewBox="0 0 16 16" xmlns="http://www.w3.org/2000/svg" xmlns:xlink="http://www.w3.org/1999/xlink"><linearGradient id="a" gradientUnits="userSpaceOnUse" x1="-17.694915" x2="-17.694915" y1="5.220339" y2="1.220339"><stop offset="0" stop-color="#0040dd"/><stop offset="1" stop-color="#0a84ff"/></linearGradient><path d="m12.492188 0a.50005.50005 0 0 0 -.345704.14648438l-2.9999996 3.00000002a.50005.50005 0 0 0 .3535156.8535156h6a.50005.50005 0 0 0 .353516-.8535156l-3-3.00000002a.50005.50005 0 0 0 -.361328-.14648438z" fill="url(#a)"/><g fill="#4b4b4f"><path d="m7.0540942 12.120692h-4.3141993l-.8779773 2.573382h-1.8619176l4.0492923-11.0201302h1.7408172l4.0038796 11.0201302h-1.8694863zm-3.7843853-1.536461h3.2621401l-1.5970106-4.707775h-.045413z" transform="scale(.91837963 1.0888743)"/><path d="m8.9035338 16.161198v-9.085356l3.3744422.012155c1.006704.00363 1.792943.2079981 2.358698.6239942.565755.4118363.848632 1.0295906.848632 1.853263 0 .4118361-.118559.7799932-.355676 1.1044702-.237118.324477-.565755.565754-.985911.723833.540795.120639.956791.380636 1.247988.779993.291197.399356.436796.863192.436796 1.391507 0 .852792-.278717 1.501746-.836152 1.946862-.557435.440956-1.327028.661434-2.308779.661434zm1.5163062-4.130842v2.920293l2.263732.01215c.524148.0028.927672-.118559 1.210549-.355676.282877-.241278.424316-.588635.424316-1.042071 0-.482555-.118559-.856952-.355677-1.12319-.237117-.266237-.607354-.399356-1.110709-.399356zm0-1.12943 2.026614.01215c.470068.0028.840313-.110239 1.11071-.330717.274557-.224632.411836-.540789.411836-.9484658 0-.4492759-.143519-.7820728-.430556-.9983908-.287037-.220478-.707193-.330717-1.260468-.330717l-1.858136-.0121546z" transform="scale(1.0108346 .98928156)"/></g></svg>

<?xml version="1.0" encoding="UTF-8" standalone="no"?>
<svg
   xmlns:dc="http://purl.org/dc/elements/1.1/"
   xmlns:cc="http://creativecommons.org/ns#"
   xmlns:rdf="http://www.w3.org/1999/02/22-rdf-syntax-ns#"
   xmlns:svg="http://www.w3.org/2000/svg"
   xmlns="http://www.w3.org/2000/svg"
   xmlns:xlink="http://www.w3.org/1999/xlink"
   xmlns:sodipodi="http://sodipodi.sourceforge.net/DTD/sodipodi-0.dtd"
   xmlns:inkscape="http://www.inkscape.org/namespaces/inkscape"
   viewBox="0 0 16 16"
   version="1.1"
   id="svg8"
   sodipodi:docname="sc_smallcaps.svg"
   inkscape:version="0.92.3 (2405546, 2018-03-11)">
  <metadata
     id="metadata14">
    <rdf:RDF>
      <cc:Work
         rdf:about="">
        <dc:format>image/svg+xml</dc:format>
        <dc:type
           rdf:resource="http://purl.org/dc/dcmitype/StillImage" />
        <dc:title></dc:title>
      </cc:Work>
    </rdf:RDF>
  </metadata>
  <defs
     id="defs12">
    <linearGradient
       gradientTransform="translate(-29.694915,1.220339)"
       id="a-6"
       gradientUnits="userSpaceOnUse"
       x1="14"
       x2="13.79661"
       y1="22"
       y2="2.1355929">
      <stop
         offset="0"
         stop-color="#0040dd"
         id="stop2" />
      <stop
         offset="1"
         stop-color="#0a84ff"
         id="stop4" />
    </linearGradient>
    <linearGradient
       inkscape:collect="always"
       xlink:href="#a-6"
       id="linearGradient1631"
       x1="12"
       y1="4"
       x2="12"
       y2="0"
       gradientUnits="userSpaceOnUse" />
  </defs>
  <sodipodi:namedview
     pagecolor="#ffffff"
     bordercolor="#666666"
     borderopacity="1"
     objecttolerance="10"
     gridtolerance="10"
     guidetolerance="10"
     inkscape:pageopacity="0"
     inkscape:pageshadow="2"
     inkscape:window-width="1366"
     inkscape:window-height="716"
     id="namedview10"
     showgrid="true"
     inkscape:zoom="2"
     inkscape:cx="20.969324"
     inkscape:cy="-73.437559"
     inkscape:window-x="-8"
     inkscape:window-y="-8"
     inkscape:window-maximized="1"
     inkscape:current-layer="svg8">
    <inkscape:grid
       type="xygrid"
       id="grid821" />
  </sodipodi:namedview>
  <path
     style="fill:url(#linearGradient1631);fill-opacity:1;stroke:none;stroke-width:1px;stroke-linecap:butt;stroke-linejoin:miter;stroke-opacity:1"
     d="M 12.492188,0 A 0.50005,0.50005 0 0 0 12.146484,0.14648438 L 9.1464844,3.1464844 A 0.50005,0.50005 0 0 0 9.5,4 h 6 a 0.50005,0.50005 0 0 0 0.353516,-0.8535156 l -3,-3.00000002 A 0.50005,0.50005 0 0 0 12.492188,0 Z"
     id="path837" />
  <g
     aria-label="A"
     transform="scale(0.91837963,1.0888743)"
     style="font-style:normal;font-weight:normal;font-size:15.50084209px;line-height:1.25;font-family:sans-serif;letter-spacing:0px;word-spacing:0px;fill:#000000;fill-opacity:1;stroke:none;stroke-width:0.38752106"
     id="text825">
    <path
       d="M 7.0540942,12.120692 H 2.7398949 L 1.8619176,14.694074 H 0 L 4.0492923,3.6739438 H 5.7901095 L 9.7939891,14.694074 H 7.9245028 Z M 3.2697089,10.584231 H 6.531849 L 4.9348384,5.876456 h -0.045413 z"
       style="font-style:normal;font-variant:normal;font-weight:500;font-stretch:normal;font-family:Roboto;-inkscape-font-specification:'Roboto Medium';stroke-width:0.38752106;stroke:none;fill:#4b4b4f;fill-opacity:1"
       id="path842" />
  </g>
  <g
     aria-label="B"
     transform="scale(1.0108346,0.98928156)"
     style="font-style:normal;font-weight:normal;font-size:12.77940273px;line-height:1.25;font-family:sans-serif;letter-spacing:0px;word-spacing:0px;fill:#000000;fill-opacity:1;stroke:none;stroke-width:0.31948507"
     id="text829">
    <path
       d="M 8.9035338,16.161198 V 7.075842 l 3.3744422,0.012155 c 1.006704,0.00363 1.792943,0.2079981 2.358698,0.6239942 0.565755,0.4118363 0.848632,1.0295906 0.848632,1.853263 0,0.4118361 -0.118559,0.7799932 -0.355676,1.1044702 -0.237118,0.324477 -0.565755,0.565754 -0.985911,0.723833 0.540795,0.120639 0.956791,0.380636 1.247988,0.779993 0.291197,0.399356 0.436796,0.863192 0.436796,1.391507 0,0.852792 -0.278717,1.501746 -0.836152,1.946862 -0.557435,0.440956 -1.327028,0.661434 -2.308779,0.661434 z M 10.41984,12.030356 v 2.920293 l 2.263732,0.01215 c 0.524148,0.0028 0.927672,-0.118559 1.210549,-0.355676 0.282877,-0.241278 0.424316,-0.588635 0.424316,-1.042071 0,-0.482555 -0.118559,-0.856952 -0.355677,-1.12319 -0.237117,-0.266237 -0.607354,-0.399356 -1.110709,-0.399356 z m 0,-1.12943 2.026614,0.01215 c 0.470068,0.0028 0.840313,-0.110239 1.11071,-0.330717 C 13.831721,10.357727 13.969,10.04157 13.969,9.6338932 13.969,9.1846173 13.825481,8.8518204 13.538444,8.6355024 13.251407,8.4150244 12.831251,8.3047854 12.277976,8.3047854 L 10.41984,8.2926308 Z"
       style="font-style:normal;font-variant:normal;font-weight:500;font-stretch:normal;font-family:Roboto;-inkscape-font-specification:'Roboto Medium';stroke-width:0.31948507;stroke:none;fill:#4b4b4f;fill-opacity:1"
       id="path831"
       inkscape:connector-curvature="0"
       sodipodi:nodetypes="ccscsccsscscccscsssccscscscc" />
  </g>
</svg>
